X:1
T:Meet Me There
T:Meet Me There
T:William James Kirkpatrick
T:Frances Jane (Fanny) Crosby, 1885
T:Public Domain Courtesy of the Cyber Hymnal™
T:Public Domain Courtesy of the Cyber Hymnal™
C:William James Kirkpatrick
Z:Public Domain
Z:Courtesy of the Cyber Hymnal™
%%score ( 1 2 ) ( 3 4 )
L:1/8
Q:1/4=105
M:4/4
K:E
V:1 treble 
V:2 treble 
V:3 bass 
V:4 bass 
V:1
 [B,E]>[B,F] | [EG]>[EG] [EG]>[EG] [EG]2 [B,E]>[EG] | [GB]>[GB] [GB]>[GB] [GB]2 [EB]>[EB] | %3
w: 1.~On the|hap- py, gold- en shore, where the|faith- ful part no more, When the|
w: 2.~Here our|fond- est hopes are vain, dear- est|links are rent in twain, But in|
w: 3.~Where the|harps of an- gels ring, and the|blest for- ev- er sing, In the|
 [Ac]>[Ac] [Ac]>[Ac] (c<e) [GB]>[EG] | [DF]6 [EG]>[FA] | [GB]>[GB] [GB]>[GB] [GB]2 [EB]>[EB] | %6
w: storms of life are over, * meet me|there; Where the|night dis- solves a- way in- to|
w: heav’n no throb of pain— * meet me|there; By the|riv- er spark- ling bright in the|
w: pal- ace of the King, * meet me|there; Where in|sweet com- mun- ion blend heart with|
 [Ac]>[Ac] [Ac]>[Ac] (c<e) E>[DF] | [EG]>[EG] [EG]>[EG] (G<B) [DF]>[DG] [B,E]6 ||"^Refrain" B>B | %9
w: pure and per- fect day, * I am|go- ing home to stay— * meet me there.||
w: ci- ty of de- light, * Where our|faith is lost in sight, * meet me there.|Meet me|
w: heart and friend with friend, * In a|world that ne’er shall end, * meet me there.||
 (z2 (3:2:1G) x209/24 | (z2 [Bd]>)[Ac] x6 | [GB]>[GB] [GB]>[GB] [Ac]<[GB] [GB]>[EG] | %12
w: |||
w: |* there,|meet me there, Where the tree of life|
w: |||
 [DF]6 [EG]>[FA] | [GB]>[GB] [GB]>[GB] [GB]2 [EB]>[EB] | [Ac]>[Ac] [Ac]>[Ac] (c<e) E>[DF] | %15
w: |||
w: is bloom- ing,|meet me there; When the storms of|life are o’er, on the * hap- py|
w: |||
 [EG]>[EG] [EG]>[EG] (G<B) [DF]>[DG] | [B,E]6 |] %17
w: ||
w: gold- en shore, Where the * faith- ful|part|
w: ||
V:2
 x2 | x8 | x8 | x4 A3 x | x8 | x8 | x4 A2 x2 | x4 E2 x8 || B>B | B6 (G>G G2) (3:2:2(cB) | %10
 e6 (G>G G2) | x8 | x8 | x8 | x4 A2 x2 | x4 E2 x2 | x6 |] %17
V:3
 [E,G,]>[E,A,] | [E,B,]>[E,B,] [E,B,]>[E,B,] [E,B,]2 [E,G,]>[E,B,] | %2
 [E,E]>[E,E] [E,E]>[E,E] [E,E]2 [G,B,]>[G,B,] | [A,E]>[A,E] [A,E]>[A,E] (E<C) [E,E]>[E,B,] | %4
 [B,,B,]6 [E,B,]>[E,B,] | [E,E]>[E,E] [E,E]>[E,E] [E,E]2 [G,B,]>[G,B,] | %6
 [A,E]>[A,E] [A,E]>[A,E] (E<C) [G,B,]>[G,B,] | %7
 [E,B,]>[E,B,] [E,B,]>[E,B,] (B,<G,) [B,,A,]>[B,,B,] [E,G,]6 || z2 | %9
 z2 ([E,E]>[E,E] [E,E]2) z2 x27/8 | z2 ([E,B,]>[E,B,] [E,B,]2) [E,B,]>[E,B,] x2 | %11
 [E,E]>[E,E] [E,E]>[E,E] [E,E]<[E,E] [E,E]>[E,B,] | ([B,,B,]2 B,>B,B,A,) [G,B,]>[F,B,] | %13
 [E,E]>[E,E] [E,E]>[E,E] [E,E]2 [G,B,]>[G,B,] | [A,E]>[A,E] [A,E]>[A,E] (E<C) [G,B,]>[F,B,] | %15
 [E,B,]>[E,B,] [E,B,]>[E,B,] (B,<G,) [B,,A,]>[B,,B,] | [E,G,]6 |] %17
V:4
 x2 | x8 | x8 | x4 A,2 x2 | x8 | x8 | x4 A,2 x2 | x4 B,,2 x8 || x2 | x91/8 | x10 | x8 | x8 | x8 | %14
 x4 A,2 x2 | x4 B,,3 x | x6 |] %17

